X:1
T:Title
%%score { 1 | ( 2 3 ) }
L:1/8
M:4/4
K:Db
V:1 treble nm="Grand Piano"
V:2 bass 
V:3 bass 
V:1
 z4 z2 z[Q:1/4=96] [DF] | [FA][FA][FA][GB] [FA]2 DE | FFFG F3 [FA] | BBBc B2 dB | %4
 [GB][FA][FA][DF] [CE]3 [DF] | [FA][FA][FA][GB] [FA]2 DE | FFFG F3 F | EEEF E=GBd | %8
[M:7/8] c>[DFB][CEA] [B,D=G] [A,CA]3 |[M:1/8] [GA] |[M:4/4] [Fd][Fd][Fd][Ge] [Fd]2 [FA][FA] | %11
 BBBc B3 B | [=Ge][Ge][Ge][GB] d2 cB |[M:7/8] AAB c [Fd]3 |] %14
V:2
 z4 z2 z [D,A,] | [D,D][D,D][D,D][D,D] [D,D]2 [D,F,][D,G,D] | %2
 [D,A,D][D,A,D][D,A,D][D,B,D] [D,A,D]3 [D,D] | [G,DG][G,DG][G,DG][G,DG] [G,DG]2 [G,B,G][G,DG] | %4
 [D,D][D,D][D,D][D,A,] [A,,A,]3 [D,A,] | [D,D][D,D][D,D][D,D] [D,D]2 [D,F,][D,G,D] | %6
 [D,A,D][D,A,D][D,A,D][D,B,D] [D,A,D]3 [D,A,D] | %7
 [E,=G,D][E,G,D][E,G,D][E,A,D] [E,D]-[E,B,D][E,G,E][G,B,E] |[M:7/8] [A,E]>D,E, E, A,,3 | %9
[M:1/8] A, |[M:4/4] [D,A,][D,A,][D,A,][D,A,] [D,A,]2 [D,D][D,D] | %11
 [G,DG][G,DG][G,DG][G,DG] [G,DG]3 [G,DG] | [E,D][E,D][E,B,][E,E][K:treble] [A,EG]2 [A,EG][A,DG] | %13
[M:7/8] [A,CG][A,CG][A,B,G] [A,G][K:bass] [D,A,]3 |] %14
V:3
 x8 | x8 | x8 | x8 | x8 | x8 | x8 | z4 .=G,2 z2 |[M:7/8] x7 |[M:1/8] x |[M:4/4] x8 | x8 | %12
 x4[K:treble] x4 |[M:7/8] x4[K:bass] x3 |] %14

